symbols/web/blur_off/materialsymbolsoutlined/blur_off_wght600_40px.svg

<svg xmlns="http://www.w3.org/2000/svg" height="40" width="40"><path d="M34.083 37.75 3 6.667 5.208 4.5 36.25 35.542ZM16.708 36q-.416 0-.708-.292-.292-.291-.292-.75 0-.416.292-.708t.708-.292q.459 0 .75.292.292.292.292.708 0 .459-.292.75-.291.292-.75.292Zm6.75 0q-.458 0-.75-.292-.291-.291-.291-.75 0-.416.291-.708.292-.292.75-.292.417 0 .709.292.291.292.291.708 0 .459-.291.75-.292.292-.709.292ZM10 31.75q-.75 0-1.25-.5T8.25 30q0-.75.5-1.25t1.25-.5q.75 0 1.25.5t.5 1.25q0 .75-.5 1.25t-1.25.5Zm6.708 0q-.75 0-1.25-.5t-.5-1.25q0-.75.5-1.25t1.25-.5q.792 0 1.292.5t.5 1.25q0 .75-.5 1.25t-1.292.5Zm6.584 0q-.792 0-1.292-.5T21.5 30q0-.75.5-1.25t1.292-.5q.75 0 1.25.5t.5 1.25q0 .75-.5 1.25t-1.25.5Zm-6.584-6q-1.041 0-1.75-.708-.708-.709-.708-1.75 0-1.042.708-1.771.709-.729 1.75-.729 1.042 0 1.771.729.729.729.729 1.771 0 1.041-.729 1.75-.729.708-1.771.708ZM10 25.042q-.75 0-1.25-.5t-.5-1.25q0-.792.5-1.292t1.25-.5q.75 0 1.25.5t.5 1.292q0 .75-.5 1.25t-1.25.5Zm20.417-.084-2.084-2.083q.084-.583.563-.979.479-.396 1.104-.396.75 0 1.25.5t.5 1.292q0 .583-.375 1.062-.375.479-.958.604Zm-25.375-.666q-.459 0-.75-.292Q4 23.708 4 23.292q0-.459.292-.75.291-.292.75-.292.416 0 .708.292.292.291.292.75 0 .416-.292.708t-.708.292Zm29.916 0q-.416 0-.708-.292t-.292-.708q0-.459.292-.75.292-.292.708-.292.459 0 .75.292.292.291.292.75 0 .416-.292.708-.291.292-.75.292Zm-10.583-5.334-3.333-3.333q.333-.625.916-1 .584-.375 1.334-.375 1.041 0 1.75.708.708.709.708 1.75 0 .75-.375 1.334-.375.583-1 .916ZM10 18.5q-.75 0-1.25-.5t-.5-1.292q0-.75.5-1.25t1.25-.5q.75 0 1.25.5t.5 1.25q0 .792-.5 1.292t-1.25.5Zm20 0q-.75 0-1.25-.5t-.5-1.292q0-.75.5-1.25t1.25-.5q.75 0 1.25.5t.5 1.25q0 .792-.5 1.292t-1.25.5Zm-24.958-.75q-.459 0-.75-.292Q4 17.167 4 16.708q0-.416.292-.708.291-.292.75-.292.416 0 .708.292t.292.708q0 .459-.292.75-.292.292-.708.292Zm29.916 0q-.416 0-.708-.292-.292-.291-.292-.75 0-.416.292-.708t.708-.292q.459 0 .75.292.292.292.292.708 0 .459-.292.75-.291.292-.75.292Zm-11.666-6q-.792 0-1.292-.5T21.5 10q0-.75.5-1.25t1.292-.5q.75 0 1.25.5t.5 1.25q0 .75-.5 1.25t-1.25.5Zm-6.209-.083-2.041-2.042q.083-.583.583-.979.5-.396 1.125-.396.75 0 1.25.5t.5 1.25q0 .625-.396 1.104-.396.479-1.021.563ZM30 11.75q-.75 0-1.25-.5t-.5-1.25q0-.75.5-1.25t1.25-.5q.75 0 1.25.5t.5 1.25q0 .75-.5 1.25t-1.25.5ZM16.708 6.042q-.416 0-.708-.292t-.292-.708q0-.459.292-.75.292-.292.708-.292.459 0 .75.292.292.291.292.75 0 .416-.292.708-.291.292-.75.292Zm6.584 0q-.459 0-.75-.292-.292-.292-.292-.708 0-.459.292-.75.291-.292.75-.292.416 0 .708.292.292.291.292.75 0 .416-.292.708t-.708.292Z"/></svg>

<svg xmlns="http://www.w3.org/2000/svg" height="40" width="40"><path d="M16.708 36Q16.292 36 16 35.708Q15.708 35.417 15.708 34.958Q15.708 34.542 16 34.25Q16.292 33.958 16.708 33.958Q17.167 33.958 17.458 34.25Q17.75 34.542 17.75 34.958Q17.75 35.417 17.458 35.708Q17.167 36 16.708 36ZM23.458 36Q23 36 22.708 35.708Q22.417 35.417 22.417 34.958Q22.417 34.542 22.708 34.25Q23 33.958 23.458 33.958Q23.875 33.958 24.167 34.25Q24.458 34.542 24.458 34.958Q24.458 35.417 24.167 35.708Q23.875 36 23.458 36ZM10 31.75Q9.25 31.75 8.75 31.25Q8.25 30.75 8.25 30Q8.25 29.25 8.75 28.75Q9.25 28.25 10 28.25Q10.75 28.25 11.25 28.75Q11.75 29.25 11.75 30Q11.75 30.75 11.25 31.25Q10.75 31.75 10 31.75ZM16.708 31.75Q15.958 31.75 15.458 31.25Q14.958 30.75 14.958 30Q14.958 29.25 15.458 28.75Q15.958 28.25 16.708 28.25Q17.5 28.25 18 28.75Q18.5 29.25 18.5 30Q18.5 30.75 18 31.25Q17.5 31.75 16.708 31.75ZM10 25.042Q9.25 25.042 8.75 24.542Q8.25 24.042 8.25 23.292Q8.25 22.5 8.75 22Q9.25 21.5 10 21.5Q10.75 21.5 11.25 22Q11.75 22.5 11.75 23.292Q11.75 24.042 11.25 24.542Q10.75 25.042 10 25.042ZM5.042 24.292Q4.583 24.292 4.292 24Q4 23.708 4 23.292Q4 22.833 4.292 22.542Q4.583 22.25 5.042 22.25Q5.458 22.25 5.75 22.542Q6.042 22.833 6.042 23.292Q6.042 23.708 5.75 24Q5.458 24.292 5.042 24.292ZM34.958 24.292Q34.542 24.292 34.25 24Q33.958 23.708 33.958 23.292Q33.958 22.833 34.25 22.542Q34.542 22.25 34.958 22.25Q35.417 22.25 35.708 22.542Q36 22.833 36 23.292Q36 23.708 35.708 24Q35.417 24.292 34.958 24.292ZM30 18.5Q29.25 18.5 28.75 18Q28.25 17.5 28.25 16.708Q28.25 15.958 28.75 15.458Q29.25 14.958 30 14.958Q30.75 14.958 31.25 15.458Q31.75 15.958 31.75 16.708Q31.75 17.5 31.25 18Q30.75 18.5 30 18.5ZM5.042 17.75Q4.583 17.75 4.292 17.458Q4 17.167 4 16.708Q4 16.292 4.292 16Q4.583 15.708 5.042 15.708Q5.458 15.708 5.75 16Q6.042 16.292 6.042 16.708Q6.042 17.167 5.75 17.458Q5.458 17.75 5.042 17.75ZM34.958 17.75Q34.542 17.75 34.25 17.458Q33.958 17.167 33.958 16.708Q33.958 16.292 34.25 16Q34.542 15.708 34.958 15.708Q35.417 15.708 35.708 16Q36 16.292 36 16.708Q36 17.167 35.708 17.458Q35.417 17.75 34.958 17.75ZM23.292 11.75Q22.5 11.75 22 11.25Q21.5 10.75 21.5 10Q21.5 9.25 22 8.75Q22.5 8.25 23.292 8.25Q24.042 8.25 24.542 8.75Q25.042 9.25 25.042 10Q25.042 10.75 24.542 11.25Q24.042 11.75 23.292 11.75ZM30 11.75Q29.25 11.75 28.75 11.25Q28.25 10.75 28.25 10Q28.25 9.25 28.75 8.75Q29.25 8.25 30 8.25Q30.75 8.25 31.25 8.75Q31.75 9.25 31.75 10Q31.75 10.75 31.25 11.25Q30.75 11.75 30 11.75ZM16.708 6.042Q16.292 6.042 16 5.75Q15.708 5.458 15.708 5.042Q15.708 4.583 16 4.292Q16.292 4 16.708 4Q17.167 4 17.458 4.292Q17.75 4.583 17.75 5.042Q17.75 5.458 17.458 5.75Q17.167 6.042 16.708 6.042ZM23.292 6.042Q22.833 6.042 22.542 5.75Q22.25 5.458 22.25 5.042Q22.25 4.583 22.542 4.292Q22.833 4 23.292 4Q23.708 4 24 4.292Q24.292 4.583 24.292 5.042Q24.292 5.458 24 5.75Q23.708 6.042 23.292 6.042ZM30.417 24.958 28.333 22.875Q28.417 22.292 28.896 21.896Q29.375 21.5 30 21.5Q30.75 21.5 31.25 22Q31.75 22.5 31.75 23.292Q31.75 23.875 31.375 24.354Q31 24.833 30.417 24.958ZM24.375 18.958 21.042 15.625Q21.375 15 21.958 14.625Q22.542 14.25 23.292 14.25Q24.333 14.25 25.042 14.958Q25.75 15.667 25.75 16.708Q25.75 17.458 25.375 18.042Q25 18.625 24.375 18.958ZM17.083 11.667 15.042 9.625Q15.125 9.042 15.625 8.646Q16.125 8.25 16.75 8.25Q17.5 8.25 18 8.75Q18.5 9.25 18.5 10Q18.5 10.625 18.104 11.104Q17.708 11.583 17.083 11.667ZM10 18.5Q9.25 18.5 8.75 18Q8.25 17.5 8.25 16.708Q8.25 15.958 8.75 15.458Q9.25 14.958 10 14.958Q10.75 14.958 11.25 15.458Q11.75 15.958 11.75 16.708Q11.75 17.5 11.25 18Q10.75 18.5 10 18.5ZM16.708 25.75Q15.667 25.75 14.958 25.042Q14.25 24.333 14.25 23.292Q14.25 22.25 14.958 21.521Q15.667 20.792 16.708 20.792Q17.75 20.792 18.479 21.521Q19.208 22.25 19.208 23.292Q19.208 24.333 18.479 25.042Q17.75 25.75 16.708 25.75ZM23.292 31.75Q22.5 31.75 22 31.25Q21.5 30.75 21.5 30Q21.5 29.25 22 28.75Q22.5 28.25 23.292 28.25Q24.042 28.25 24.542 28.75Q25.042 29.25 25.042 30Q25.042 30.75 24.542 31.25Q24.042 31.75 23.292 31.75ZM34.083 37.75 3 6.667 5.208 4.5 36.25 35.542Z"/></svg>
